X:33
T:Bourree carree de Saint-Chartier
Z:Jack Campin, 2014
F:http://www.campin.me.uk/Music/YoupNannetteD.abc
S:p36, p1000225.jpg
M:2/4
L:1/8
Q:1/4=120
K:G
D>D EF   |G3  B|A>G FG|A>B A2|\
D>D EF   |G3  B|A>G FE|D4   :|
GA  BA/B/|cB A2|BG  FG|BA  FD|\
GA  BA/B/|cB A2|BG  FA|G4   :|

